X:1
T: Revenge
N:
C:
S:
A:
O:
R:
M:4/4
K:G
I:speed 200
%W: A1
% voice 1 (1 lines, 33 notes)
K:G
M:4/4
L:1/16
G4 |G6 A2 G4 g4 |d6 e2 d4 G4 |B4 A4 A4 G4 |B4 A4 A4 B4 |G6 A2 G4 g4 |d6 e2 d4 B4 |G4 e4 e4 G4 |G4 E4 E4 G4 |
%W: A2
% voice 1 (1 lines, 32 notes)
G6 A2 G4 g4 |d6 e2 d4 G4 |B4 A4 A4 G4 |B4 A4 A4 B4 |G6 A2 G4 g4 |d6 e2 d4 B4 |G4 e4 e4 G4 |G4 E4 E4 g4 |
%W: B1
% voice 1 (1 lines, 40 notes)
g6 a2 b4 a2 g2 |f4 a4 a4 g2 a2 |b4 a4 a4 g2 a2 |b4 a4 a4 g2 a2 |b2 a2 g2 f2 e2 f2 g2 e2 |d4 B4 c4 d4 |e4 G4 G6 A2 |G4 E4 E4 g4 |
%W: B2
% voice 1 (1 lines, 39 notes)
g6 a2 b4 a2 g2 |f4 a4 a4 g2 a2 |b4 a4 a4 g2 a2 |b4 a4 a4 g2 a2 |b2 a2 g2 f2 e2 f2 g2 e2 |d4 B4 c4 d4 |e4 G4 G6 A2 |G4 E4 E4 ||
